X: 56
T: No_151_Heaps_of_Clouds.krn
%%abc-version 2.0
%%abcx-abcm2ps-target-version 5.9.1 (29 Sep 2008)
%%abc-creator hum2abc beta
%%abcx-conversion-date 2020/08/10 18:54:56
%%gracespace 0 6 6
%%humdrum-veritas 1376471867
%%humdrum-veritas-data 2553779864
%%linebreak <none>
%%barnumbers 0
L: 1/8
M: 3/4
%%staves {1 2}
V: 1 clef=treble
V: 2 clef=bass
K: Db
[V:1] A (3B/B/A/ [I:setbarnb 1]| 
[V:2] z2 | 
[V:1] A4AF ||  
[V:2] (3!accent!G,, z G,, (3!accent!G,, z G,, (3!accent!G,, z G,, ||  
[V:1] [M:2/4]D2B,2 | 
[V:2] [M:2/4]z4 | 
[V:1] D2(3FFE | 
[V:2] z4 | 
[V:1] D>DD2- | 
[V:2] z4 | 
[V:1] D4 | 
[V:2] z4 | 
[V:1] AA BA ||  
[V:2] z4 ||  
[V:1] [M:3/4]A4AF ||  
[V:2] [M:3/4]z6 ||  
[V:1] [M:2/4]D2B,2 | 
[V:2] [M:2/4]z4 | 
[V:1] D2(3FFE | 
[V:2] z4 | 
[V:1] D>DD2 | 
[V:2] z4 | 
[V:1] D4 ||  
[V:2] z4 ||  
[V:1] [M:3/4]AA AA FF | 
[V:2] [M:3/4]z6 | 
[V:1] D4[K:clef=bass]B,B, ||  
[V:2] z6 ||  
[V:1] [M:2/4]A,2F,2 | 
[V:2] [M:2/4]z4 | 
[V:1] A,A, B,A, | 
[V:2] z4 | 
[V:1] A,4 ||  
[V:2] z4 ||  
[V:1] [M:3/4]A,A, F,E,D,2 | 
[V:2] [M:3/4]z6 | 
[V:1] F,A,F,2F,E, ||  
[V:2] z6 ||  
[V:1] [M:2/4]D,>D,D,2 | 
[V:2] [M:2/4]z4 | 
[V:1] D,4 |]  
[V:2] z4 |]  


